X:1
T:Title
%%score ( 1 2 ) ( 3 4 )
L:1/8
Q:1/4=90
M:4/4
K:F
V:1 treble nm="Midi_20"
V:2 treble 
V:3 bass nm="Midi_20"
V:4 bass 
V:1
"^Nain (64. 64)""^Lowell Mason\n(1792-1872)" c2 | c2 A2 A2 F2 | G6 c2 | d4 =B4 | c6 || c2 | %6
 c2 A2 B2 c2 | d6 G2 | A4 G4 | F6 |] %10
V:2
 F2 | F2 F2 F2 F2 | E6 E2 | F4 F4 | E6 || F2 | F2 F2 F2 F2 | F6 F2 | F4 E4 | F6 |] %10
V:3
 A,2 | A,2 C2 C2 C2 | C6 C2 | A,4 D4 | C6 || A,2 | A,2 C2 B,2 A,2 | B,6 D2 | C4 B,4 | A,6 |] %10
V:4
 F,2 | F,2 A,2 C2 A,F, | C,6 A,2 | F,4 G,4 | C,6 || F,2 | F,2 _E,2 D,2 C,2 | B,,6 B,,2 | C,4 C,4 | %9
 F,6 |] %10

